Obsidian-SemiLight/actions/16s/debug-run.svg

<svg viewBox="0 0 16 16" xmlns="http://www.w3.org/2000/svg"><path d="m2 2v3 9h1 5v-1h-5v-8h10v3h1v-6h-11zm9 6v2h-3v2h3v2l3-3z" fill="#4d4d4d"/></svg>

<svg xmlns="http://www.w3.org/2000/svg" viewBox="0 0 16 16">
  <defs id="defs3051">
    <style type="text/css" id="current-color-scheme">
      .ColorScheme-Text {
        color:#4d4d4d;
      }
      </style>
  </defs>
 <path style="fill:currentColor;fill-opacity:1;stroke:none" 
       d="M 2 2 L 2 5 L 2 14 L 3 14 L 8 14 L 8 13 L 3 13 L 3 5 L 13 5 L 13 8 L 14 8 L 14 2 L 3 2 L 2 2 z M 11 8 L 11 10 L 8 10 L 8 12 L 11 12 L 11 14 L 14 11 L 11 8 z "
     class="ColorScheme-Text"
     />
</svg>
